assets/Satellite antenna/Flat/satellite_antenna_flat.svg

<svg width="32" height="32" viewBox="0 0 32 32" fill="none" xmlns="http://www.w3.org/2000/svg">
<path d="M23.52 8.92736C23.5135 8.71581 23.3746 8.53126 23.173 8.46658C23.083 8.43768 22.9892 8.43551 22.9015 8.45695L12.8828 10.8743L13.1173 11.8464L21.7685 9.75902L17.7703 14.9997L18.5653 15.6062L22.5636 10.3656L22.8358 19.2609L23.8353 19.2303L23.52 8.92736Z" fill="#636363"/>
<path d="M12.2126 11C10.0661 14.2771 10.0758 18.0429 14 21C17.9242 23.9571 21.6337 22.9939 24.1922 20.0272L12.2126 11Z" fill="#D3D3D3"/>
<path d="M10.5268 21C10.5227 21 10.5186 21 10.5145 21C9.16673 21 8.01006 22.1739 8 23.6413L8.00208 28.936H20.9292C20.8839 28.8393 20.8161 28.7495 20.7234 28.6738L15.2505 24.1988L13.6603 21.1268L11.5422 20.4993L10.5268 21Z" fill="#D3D3D3"/>
<path d="M24.5891 7.98666C25.0031 9.01393 24.5023 10.1721 23.4751 10.587C22.448 11.0019 21.2907 10.5018 20.8767 9.4745C20.4627 8.44722 20.9692 7.27938 21.9907 6.87414C23.0122 6.46891 24.1751 6.95939 24.5891 7.98666Z" fill="#9B9B9B"/>
<path d="M11.6018 9.79866C11.9342 9.35759 12.5612 9.26947 13.0022 9.60184L24.9818 18.6291C25.4229 18.9614 25.511 19.5884 25.1786 20.0295C24.8462 20.4706 24.2192 20.5587 23.7782 20.2263L11.7986 11.1991C11.3575 10.8667 11.2694 10.2397 11.6018 9.79866Z" fill="#9B9B9B"/>
<path d="M15.2438 24.1933L12.0031 21.5435C11.5706 21.1957 11.0476 21 10.5145 21L10.4835 21.0002L12 19L16.5599 22.4209L15.2438 24.1933Z" fill="#9B9B9B"/>
<path d="M20.9063 28H7.11329C6.49261 28 6 28.4465 6 29C6 29.5536 6.49261 30 7.10344 30H20.8964C21.5072 30 21.9999 29.5536 21.9999 29C22.0097 28.4465 21.5171 28 20.9063 28Z" fill="#9B9B9B"/>
<path d="M11 25C11.5523 25 12 24.5523 12 24C12 23.4477 11.5523 23 11 23C10.4477 23 10 23.4477 10 24C10 24.5523 10.4477 25 11 25Z" fill="#9B9B9B"/>
<path d="M27.3758 4.67022C26.6794 3.87658 25.7369 3.23504 24.7535 2.89141C23.7749 2.54945 22.6962 2.48426 21.777 2.94223C21.5299 3.06538 21.4293 3.36558 21.5525 3.61274C21.6756 3.8599 21.9758 3.96043 22.223 3.83729C22.8218 3.53892 23.6022 3.54841 24.4236 3.83544C25.2403 4.12079 26.0387 4.66253 26.6242 5.32977C27.7469 6.60926 27.7892 8.02727 27.3097 9.87431C27.2404 10.1416 27.4008 10.4145 27.6681 10.4839C27.9354 10.5533 28.2083 10.3929 28.2777 10.1256C28.7933 8.13912 28.8169 6.31247 27.3758 4.67022Z" fill="#1C5CD7"/>
<path d="M25.4166 5.46271C24.4145 4.48423 23.0019 4.25277 21.804 4.76315C21.55 4.87139 21.4318 5.16508 21.54 5.41912C21.6483 5.67317 21.942 5.79136 22.196 5.68312C23.0255 5.32969 24.0072 5.48418 24.7179 6.17818C25.4325 6.8759 25.6653 7.92843 25.3841 8.85471C25.3038 9.11894 25.453 9.39819 25.7172 9.47842C25.9814 9.55866 26.2607 9.4095 26.3409 9.14527C26.7238 7.88447 26.4148 6.43747 25.4166 5.46271Z" fill="#1C5CD7"/>
</svg>

<svg xmlns="http://www.w3.org/2000/svg" width="32" height="32" fill="none"><path fill="#636363" d="M23.52 8.927a.5.5 0 0 0-.619-.47l-10.018 2.417.234.972 8.651-2.087-3.998 5.24.795.607 3.999-5.24.272 8.895 1-.03-.316-10.304Z"/><path fill="#D3D3D3" d="M12.213 11c-2.147 3.277-2.137 7.043 1.787 10s7.634 1.994 10.192-.973L12.212 11ZM10.527 21h-.012C9.166 21 8.01 22.174 8 23.641l.002 5.295H20.93a.746.746 0 0 0-.206-.262l-5.472-4.475-1.59-3.072-2.119-.628-1.015.501Z"/><path fill="#9B9B9B" d="M24.59 7.987a1.997 1.997 0 0 1-1.115 2.6 1.993 1.993 0 0 1-2.598-1.112 1.998 1.998 0 0 1 1.114-2.6 2.003 2.003 0 0 1 2.598 1.112ZM11.602 9.799a1 1 0 0 1 1.4-.197l11.98 9.027a1 1 0 1 1-1.204 1.597L11.798 11.2a1 1 0 0 1-.196-1.4ZM15.244 24.193l-3.24-2.65a2.385 2.385 0 0 0-1.49-.543h-.03L12 19l4.56 3.42-1.316 1.773ZM20.906 28H7.113C6.493 28 6 28.447 6 29c0 .554.493 1 1.103 1h13.793c.611 0 1.104-.446 1.104-1 .01-.553-.483-1-1.094-1ZM11 25a1 1 0 1 0 0-2 1 1 0 0 0 0 2Z"/><path fill="#1C5CD7" d="M27.376 4.67a6.373 6.373 0 0 0-2.623-1.779c-.978-.342-2.057-.407-2.976.051a.5.5 0 0 0 .446.895c.599-.298 1.38-.289 2.2-.002a5.374 5.374 0 0 1 2.201 1.495c1.123 1.28 1.165 2.697.686 4.544a.5.5 0 0 0 .968.252c.515-1.987.539-3.814-.902-5.456Z"/><path fill="#1C5CD7" d="M25.417 5.463c-1.003-.979-2.415-1.21-3.613-.7a.5.5 0 0 0 .392.92c.83-.353 1.811-.199 2.522.495.715.698.947 1.75.666 2.677a.5.5 0 1 0 .957.29c.383-1.26.074-2.708-.924-3.682Z"/></svg>
